icon-themes/sifr_svg/cmd/lc_flowchartshapes.flowchart-alternate-process.svg

<svg viewBox="0 0 24 24" xmlns="http://www.w3.org/2000/svg"><g fill="#555753"><path d="m4 3c-.554 0-1 .446-1 1v16c0 .554.446 1 1 1h16c.554 0 1-.446 1-1v-16c0-.554-.446-1-1-1z" opacity=".35"/><path d="m4 2c-1.0907028 0-2 .9092972-2 2v16c0 1.090703.9092972 2 2 2h16c1.090703 0 2-.909297 2-2v-16c0-1.0907028-.909297-2-2-2zm0 2h16v16h-16z"/></g></svg>

<svg xmlns="http://www.w3.org/2000/svg" viewBox="0 0 24 24">
  <path
     style="opacity:0.35;fill:#555753"
     d="M 4,3 C 3.446,3 3,3.446 3,4 v 16 c 0,0.554 0.446,1 1,1 h 16 c 0.554,0 1,-0.446 1,-1 V 4 C 21,3.446 20.554,3 20,3 Z"
     />
  <path
     style="fill:#555753"
     d="M 4,2 C 2.9092972,2 2,2.9092972 2,4 v 16 c 0,1.090703 0.9092972,2 2,2 h 16 c 1.090703,0 2,-0.909297 2,-2 V 4 C 22,2.9092972 21.090703,2 20,2 Z M 4,4 H 20 V 20 H 4 Z"
     />
</svg>
